X: 310
T: Fengyang huagu
%%abc-version 2.0
%%abcx-abcm2ps-target-version 5.9.1 (29 Sep 2008)
%%abc-creator hum2abc beta
%%abcx-conversion-date 2013/10/02 07:52:30
%%abc-edited-by Helmut Schaffrath
%%humdrum-veritas 3340484894
%%humdrum-veritas-data 4237707702
%%continueall 1
%%barnumbers 0
L: 1/8
M: 2/4
K: F
c df2 [I:setbarnb 1]| 
f dc2 | 
c df2 | 
f dc2 | 
cc2d | 
c2c2 | 
f c A G | 
F4 | 
A G A/ A/ A/ G/ | 
A FG2 | 
c c c A | 
c4 | 
cc2d | 
f2c2 | 
f c A G | 
F A G D | 
F4 |]  



